X:25
T:Mackelmoyel's Reel
M:4/4
K:D
L:1/8
DFAd fdfd|cdec dBAF|DFAd BGBG|FGAF EGFE|
DFAd fdfd|cdec dBAF|AFAd BGBG|cdec d4 :|
Acef gfge|Ace^g agae|Acef gfgf|efed cdcB|
Acef gfge|Ace^g agae|Acef gfed| cABc d2d2 :|
